static/img/kroki/ea696c130f7fc1c70487ccbd86909ba7.svg

<?xml version="1.0" encoding="us-ascii" standalone="no"?><svg xmlns="http://www.w3.org/2000/svg" xmlns:xlink="http://www.w3.org/1999/xlink" contentStyleType="text/css" height="374px" preserveAspectRatio="none" style="width:291px;height:374px;" version="1.1" viewBox="0 0 291 374" width="291px" zoomAndPan="magnify"><defs/><g><!--class kubernetes_resource--><g id="elem_kubernetes_resource"><rect codeLine="23" fill="#3D176E" height="39.7891" id="kubernetes_resource" rx="2.5" ry="2.5" style="stroke:#000D19;stroke-width:0.5;" width="216" x="37.5" y="167.79"/><ellipse cx="52.5" cy="187.6845" fill="#ADD1B2" rx="11" ry="11" style="stroke:#181818;stroke-width:1.0;"/><path d="M55.4688,193.3252 Q54.8906,193.622 54.25,193.7627 Q53.6094,193.9189 52.9063,193.9189 Q50.4063,193.9189 49.0781,192.2783 Q47.7656,190.622 47.7656,187.497 Q47.7656,184.372 49.0781,182.7158 Q50.4063,181.0595 52.9063,181.0595 Q53.6094,181.0595 54.25,181.2158 Q54.9063,181.372 55.4688,181.6689 L55.4688,184.3877 Q54.8438,183.8095 54.25,183.5439 Q53.6563,183.2627 53.0313,183.2627 Q51.6875,183.2627 51,184.3408 Q50.3125,185.4033 50.3125,187.497 Q50.3125,189.5908 51,190.6689 Q51.6875,191.7314 53.0313,191.7314 Q53.6563,191.7314 54.25,191.4658 Q54.8438,191.1845 55.4688,190.6064 L55.4688,193.3252 Z " fill="#000000"/><text fill="#D9B8FF" font-family="Helvetica" font-size="17" lengthAdjust="spacing" textLength="174" x="71.5" y="193.5698">kubernetes_resource</text></g><!--class kubernetes_service_account--><g id="elem_kubernetes_service_account"><rect codeLine="26" fill="#3D176E" height="39.7891" id="kubernetes_service_account" rx="2.5" ry="2.5" style="stroke:#000D19;stroke-width:0.5;" width="277" x="7" y="328.58"/><ellipse cx="22" cy="348.4745" fill="#ADD1B2" rx="11" ry="11" style="stroke:#181818;stroke-width:1.0;"/><path d="M24.9688,354.1152 Q24.3906,354.412 23.75,354.5527 Q23.1094,354.7089 22.4063,354.7089 Q19.9063,354.7089 18.5781,353.0683 Q17.2656,351.412 17.2656,348.287 Q17.2656,345.162 18.5781,343.5058 Q19.9063,341.8495 22.4063,341.8495 Q23.1094,341.8495 23.75,342.0058 Q24.4063,342.162 24.9688,342.4589 L24.9688,345.1777 Q24.3438,344.5995 23.75,344.3339 Q23.1563,344.0527 22.5313,344.0527 Q21.1875,344.0527 20.5,345.1308 Q19.8125,346.1933 19.8125,348.287 Q19.8125,350.3808 20.5,351.4589 Q21.1875,352.5214 22.5313,352.5214 Q23.1563,352.5214 23.75,352.2558 Q24.3438,351.9745 24.9688,351.3964 L24.9688,354.1152 Z " fill="#000000"/><text fill="#D9B8FF" font-family="Helvetica" font-size="17" lengthAdjust="spacing" textLength="235" x="41" y="354.3598">kubernetes_service_account</text></g><!--class resource--><g id="elem_resource"><rect codeLine="29" fill="#3D176E" height="39.7891" id="resource" rx="2.5" ry="2.5" style="stroke:#000D19;stroke-width:0.5;" width="113" x="89" y="7"/><ellipse cx="104" cy="26.8945" fill="#ADD1B2" rx="11" ry="11" style="stroke:#181818;stroke-width:1.0;"/><path d="M106.9688,32.5352 Q106.3906,32.832 105.75,32.9727 Q105.1094,33.1289 104.4063,33.1289 Q101.9063,33.1289 100.5781,31.4883 Q99.2656,29.832 99.2656,26.707 Q99.2656,23.582 100.5781,21.9258 Q101.9063,20.2695 104.4063,20.2695 Q105.1094,20.2695 105.75,20.4258 Q106.4063,20.582 106.9688,20.8789 L106.9688,23.5977 Q106.3438,23.0195 105.75,22.7539 Q105.1563,22.4727 104.5313,22.4727 Q103.1875,22.4727 102.5,23.5508 Q101.8125,24.6133 101.8125,26.707 Q101.8125,28.8008 102.5,29.8789 Q103.1875,30.9414 104.5313,30.9414 Q105.1563,30.9414 105.75,30.6758 Q106.3438,30.3945 106.9688,29.8164 L106.9688,32.5352 Z " fill="#000000"/><text fill="#D9B8FF" font-family="Helvetica" font-size="17" lengthAdjust="spacing" textLength="71" x="123" y="32.7798">resource</text></g><!--reverse link resource to kubernetes_resource--><g id="link_resource_kubernetes_resource"><path codeLine="32" d="M145.5,65.05 C145.5,95.57 145.5,136.9 145.5,167.46 " fill="none" id="resource-backto-kubernetes_resource" style="stroke:#FFAF37;stroke-width:2.0;"/><polygon fill="none" points="145.5,47.05,139.5,65.05,151.5,65.05,145.5,47.05" style="stroke:#FFAF37;stroke-width:2.0;"/></g><!--reverse link kubernetes_resource to kubernetes_service_account--><g id="link_kubernetes_resource_kubernetes_service_account"><path codeLine="33" d="M145.5,225.84 C145.5,256.36 145.5,297.69 145.5,328.25 " fill="none" id="kubernetes_resource-backto-kubernetes_service_account" style="stroke:#FFAF37;stroke-width:2.0;"/><polygon fill="none" points="145.5,207.84,139.5,225.84,151.5,225.84,145.5,207.84" style="stroke:#FFAF37;stroke-width:2.0;"/></g><!--SRC=[XP9FQm8n4CNl-oa2dWMjj2hqea9fBr9gxnAJ5msxcyXaLh5_ldkrjX8tgnupxvTvRuPPMGs1SiqxKQ9SW48MSklMacGfHaH-E_659z4oHffUlou-USStWQai8PvHRC1MoJhnlh8gTmX1t4NIMAfyIRvo-jYUIRgmb-0ueYQ53674J7PHCQ8mUhWO65CdwqrRFTtjFo31F6dG7zBfT7HtM4TkMbsT-qJCx0T4DrxQr3EIc8d5BtKrvO68GYQ3_kiNCxvAhQrRYlkezdRCH0vqLf-jfFRR0sra4MARm21utgqnIQR2SA1Dln5-kGHdwh0waLVxItLWX3aX-8eKn6UMVQTo06simbmgjU_6CNN-y_Hw_6gtsqqEMPDhGjSCiny0]--></g></svg>

<svg xmlns="http://www.w3.org/2000/svg" width="291" height="374" viewBox="0 0 291 374"><rect width="216" height="39.789" x="37.5" y="167.79" fill="#3D176E" rx="2.5" ry="2.5" style="stroke:#000d19;stroke-width:.5"/><circle cx="52.5" cy="187.685" r="11" fill="#ADD1B2" style="stroke:#181818;stroke-width:1"/><path d="M55.469 193.325q-.578.297-1.219.438-.64.156-1.344.156-2.5 0-3.828-1.64-1.312-1.657-1.312-4.782t1.312-4.781q1.328-1.656 3.828-1.656.703 0 1.344.156.656.156 1.219.453v2.719q-.625-.578-1.219-.844-.594-.281-1.219-.281-1.343 0-2.031 1.078-.687 1.062-.687 3.156t.687 3.172q.688 1.062 2.031 1.062.625 0 1.219-.265.594-.281 1.219-.86z"/><text x="71.5" y="193.57" fill="#D9B8FF" font-family="Helvetica" font-size="17" textLength="174">kubernetes_resource</text><rect width="277" height="39.789" x="7" y="328.58" fill="#3D176E" rx="2.5" ry="2.5" style="stroke:#000d19;stroke-width:.5"/><circle cx="22" cy="348.474" r="11" fill="#ADD1B2" style="stroke:#181818;stroke-width:1"/><path d="M24.969 354.115q-.578.297-1.219.438-.64.156-1.344.156-2.5 0-3.828-1.64-1.312-1.657-1.312-4.782t1.312-4.781q1.328-1.656 3.828-1.656.703 0 1.344.156.656.156 1.219.453v2.719q-.625-.579-1.219-.844-.594-.281-1.219-.281-1.343 0-2.031 1.078-.687 1.062-.687 3.156t.687 3.172q.688 1.062 2.031 1.062.625 0 1.219-.265.594-.281 1.219-.86z"/><text x="41" y="354.36" fill="#D9B8FF" font-family="Helvetica" font-size="17" textLength="235">kubernetes_service_account</text><rect width="113" height="39.789" x="89" y="7" fill="#3D176E" rx="2.5" ry="2.5" style="stroke:#000d19;stroke-width:.5"/><circle cx="104" cy="26.895" r="11" fill="#ADD1B2" style="stroke:#181818;stroke-width:1"/><path d="M106.969 32.535q-.578.297-1.219.438-.64.156-1.344.156-2.5 0-3.828-1.64-1.312-1.657-1.312-4.782t1.312-4.781q1.328-1.656 3.828-1.656.703 0 1.344.156.656.156 1.219.453v2.719q-.625-.578-1.219-.844-.594-.281-1.219-.281-1.344 0-2.031 1.078-.687 1.062-.687 3.156t.687 3.172q.688 1.062 2.031 1.062.625 0 1.219-.265.594-.281 1.219-.86z"/><text x="123" y="32.78" fill="#D9B8FF" font-family="Helvetica" font-size="17" textLength="71">resource</text><path fill="none" d="M145.5 65.05v102.41m0-120.41-6 18h12zm0 178.79v102.41m0-120.41-6 18h12z" style="stroke:#ffaf37;stroke-width:2"/></svg>
